X: 35226
T: Rosbeg
R: reel
M: 4/4
K: Gmajor
G2{c} GF DG FD|(3EFG AB ED E.B-|B.A2 G- {c}GF DF|~G3F DG FD|
(3EFG AB cE DF-|F.G2A- AB AG:|:AB cE- EA G{A}B-|BG cd c{d}e 2G-|
GG2A BA Bd-|1 dG DA- AF de|fd2A BD2E:|2 dG DA- AF ED|DD-D6||

